X: 1
T: Southern Melodies (Polka)
C: from Winston "Scotty" Fitzgerald Collection
S: Arr. T. Traub 5-2-2000
R: reel
M: 4/4
L: 1/8
K: D
fg \
| "D"a2^ga bafe | "D"dcde f2de | "D"{e}f2df "G"edB2 | "D"A4  A2fg \
| "D"a2^ga bafe | "D"dcde fedf | "E"e^def     ^g2e2 | "A"a4  a2fg ||
| "D"a2^ga bafe | "D"dcde f2de | "D"f2df    "G"edB2 | "D"A4  ABAF \
| "G"G2A2  B2c2 | "D"dcdb a2f2 | "D"ABde    "A"fde2 | "D"d4  d4   |]
[|"D"AFBF  ABFA | "D"dcde dAFG | "D"A^GAc      B2F2 | "Em"G4 GAGF \
| "A7"E3F  G2A2 |"A7"c2cd c2EF |"Em"GFGA    "A"B2A2 | "D"F3D FAdf ||
| "D"a2^ga bafe | "D"dcde f2de | "D"f2df    "G"edB2 | "D"A4  ABAF \
| "G"G2A2  B2c2 | "D"dcdb a2f2 | "D"ABde    "A"fde2 | "D"d4  d2  |]
